X: 852
M: 9/8
L: 1/8
K: Amix
V: 1
|:\
|:\
a2a- aec a2e | a2a- aec g2B |\
a2a- aec aeg | fdf ece g2B :|
V: 2 clef=bass middle=d
|:\
a3 a3 a3 | a3 a3 b3 |\
a3 a3 a3 | d'3 c'3 b3 :|
|:\
a3 a3 a3 | a3 a3 b3 |\
a3 a3 a3 | d'3 c'3 b3 :|

